X:15
T:Le branle de la belle
R:
S:
N:
A:Champagne
G:
O:France
Z:<anamnese@laposte.net>
M:2/4
L:1/8
Q:1/4=135
K:F
C2 | F>F A>A | c2 A2 | G>G (3GAG | F2 z C :| A>B c>c | c2 c>c | B>B c2 |
A2 A>C | A>B c>c | c2 c>c | B>B c2 | (3GAG c2-|c2 zC2 :|
